!!!OTL: 305. Beruf zur Freude.
!!!COM: Volksweise
!!!ODT: 1810 (nach)
!!!ARE: Europa, Mitteleuropa, Deutschland
!!!SCT: B0305
!!!TXL: @@DE
!!!YEM: Copyright 1995, estate of Helmut Schaffrath.
**kern	**text
*ICvox	*
*Ivox	*
*clefG2	*
*M6/8	*
*k[f#]	*
*G:	*
=1	=1
!LO:TX:a:t=Leicht bewegt.	!
{4b	Ʒu
8b	des
8ccqq	.
8b\L	Le-
8aJ	.
8b	-bens
=2	=2
(4dd	Freu-
8cc)	.
4b	-den
8r}	.
=3	=3
{4a	ſchuf
8b	uns
4cc	die
8dd	Na-
=4	=4
4.b	-tur;
4r	.
8r}	.
=5	=5
{4b	a-
8b	-ber
8ddq	.
8cc#L	Gram
8bJ	.
8cc#	und
=6	=6
4.dd	Lei-
4.b}	-den
=7	=7
{4a	ſchaf-
8ff#	-fen
8.eeL	wir
16ff#J	.
8ee	uns
=8	=8
4.dd	nur,
4r	.
8r}	.
=9	=9
{4a	küm-
8b	-mern
4cc	uns
8dd	und
=10	=10
4.cc	ha-
4.b}	-ben
=11	=11
{4g	un-
8g	-ſre
8aL	gro-
8gJ	.
8a	-ße
=12	=12
4.b	Noth:
4r	.
8r}	.
=13	=13
{4cc	und
8cc	doch
4b	giebt
8b	den
=14	=14
(4.ee	Ra-
8eeL	.
8ddJ)	.
8cc}	-ben
=15	=15
{4b	täg-
8b	-lich
4cc	Gott
8a	ihr
=16	=16
4.g	Brot.
4.r}	.
==	==
!!!AGN: Stimmungs - Lied, Freude, Moral
!!!GTL: Lieder der Freude und Geseligkeit
!!!ONB: ESAC (Essen Associative Code) Database: BOEHME
!!!AMT: compound duple
!!!AIN: vox
!!!EED: Helmut Schaffrath
!!!EEV: 1.0
!!Volksweiſe nach 1800.
!!@@COMMENT:"Gedicht von Friedrich v. Köpken. Ʒuerſt im Göttinger Muſenalmanach für 1790 S. 99.
!!- Das Original abgedruckt bei Wuſtmann, Lieder für altmod. Leute, S. 367, an einigen Stellen
!!etwas abweichend. - Gekürʒt auf 3 Strophen und die alte Melodie umgearbeitet von Fink in
!!deſſen Hausſchatʒ. - Die durch das Mildh. Liederbuch verbreitete Melodie war von Fr. Wilb.
!!Ʒachariä ʒu Frankenhauſen in Thüringen komponirt; aus ihr hat ſich beiſtehende Volksweiſe
!!herausgebildet."
!!@@END:
!!!Text: F. von Köpken
!!!URL-scan: https://archive.org/details/BoehmeVtLieder1895/page/n255/mode/2up
!!!ENC: Anna Maria Matuszewska
!!!EEV: 2024/04/07
*-	*-
